X:1
T:The Black Cavalry
M:3/4
L:1/4
K:G
 d/2B/2| G3/2 D/2 B,| C B, C| D/2 G3/2 F| G3-| G3-| G z B/2c/2| d e B|\
 c d c| B A G| c3-| c3-| c z B/2c/2| d d B| c d c| B A G| c2 G/2A/2|\
 B3/2 A/2 G| F D B,| D3/2 D/2 D| cc/2-B/2 A| G3/2 D/2D/2 B,/2| C B, C|\
 D3/2 G/2G/2 F/2| G G2-| G3-| G2||
